assets/icons/qvision/sports_bar.svg

<svg xmlns="http://www.w3.org/2000/svg" enable-background="new 0 0 24 24" height="24" viewBox="0 0 24 24" width="24"><rect fill="none" height="24" width="24"/><path d="M19,9h-1.56C17.79,8.41,18,7.73,18,7c0-2.21-1.79-4-4-4c-0.34,0-0.66,0.05-0.98,0.13C12.2,2.45,11.16,2.02,10,2.02 c-1.89,0-3.51,1.11-4.27,2.71C4.15,5.26,3,6.74,3,8.5c0,1.86,1.28,3.41,3,3.86L6,21h11v-2h2c1.1,0,2-0.9,2-2v-6C21,9.9,20.1,9,19,9z M7,10.5c-1.1,0-2-0.9-2-2c0-0.85,0.55-1.6,1.37-1.88l0.8-0.27l0.36-0.76C8,4.62,8.94,4.02,10,4.02c0.79,0,1.39,0.35,1.74,0.65 l0.78,0.65c0,0,0.64-0.32,1.47-0.32c1.1,0,2,0.9,2,2c0,0-3,0-3,0C9.67,7,9.15,10.5,7,10.5z M19,17h-2v-6h2V17z"/></svg>

<svg width="24" height="24" viewBox="0 0 24 24" fill="none" xmlns="http://www.w3.org/2000/svg">
<g clip-path="url(#clip0_147_6297)">
<path d="M19 9H17.44C17.79 8.41 18 7.73 18 7C18 4.79 16.21 3 14 3C13.66 3 13.34 3.05 13.02 3.13C12.2 2.45 11.16 2.02 10 2.02C8.11 2.02 6.49 3.13 5.73 4.73C4.15 5.26 3 6.74 3 8.5C3 10.36 4.28 11.91 6 12.36V21H17V19H19C20.1 19 21 18.1 21 17V11C21 9.9 20.1 9 19 9ZM7 10.5C5.9 10.5 5 9.6 5 8.5C5 7.65 5.55 6.9 6.37 6.62L7.17 6.35L7.53 5.59C8 4.62 8.94 4.02 10 4.02C10.79 4.02 11.39 4.37 11.74 4.67L12.52 5.32C12.52 5.32 13.16 5 13.99 5C15.09 5 15.99 5.9 15.99 7H12.99C9.67 7 9.15 10.5 7 10.5ZM19 17H17V11H19V17Z" fill="#323232"/>
</g>
<defs>
<clipPath id="clip0_147_6297">
<rect width="24" height="24" fill="white"/>
</clipPath>
</defs>
</svg>
